X:1
T:Title
%%score { ( 1 3 ) | ( 2 4 ) }
L:1/8
Q:1/4=100
M:3/4
K:Ab
V:1 treble nm="Grand Piano"
V:3 treble 
V:2 bass 
V:4 bass 
V:1
 [CE]2 [CA]2 [CA][CB] | [DA]2 [DG]2 [EB][Ec] | [Gd]2 [Fd]2 [Ed]2 | [Ec]4 z2 | e2 c2 [Ec][Ec] | %5
w: E.~S.~Lorenz * * *|||||
 [=Dc]2 [DF]2 [DF][EG] | [=DA]2 [Dc]2 [DB]2 | [EB]4 z2 | [CE]2 [CA]2 [CA][CB] | %9
w: ||||
 [DA]2 [DG]2 [EB][Ec] | [Gd]2 [Fd]2 [Ed]2 | [Ec]4 c2 | B2 E2 AA | G2 [=DG]2 F-[DF] | E6- | E4 z2 | %16
w: |||||||
 [Ec]2 [CA]2 [A,C][CE] | [CG]2 [CF]2 CC | D2 [DF]2 [DG]2 | [DF]4 z2 | [Fd]2 [FB]2 FG | %21
w: |||||
 [Gc]2 [GB]2 DE | C2 [CG]2 .[F,CF]2 | [CE]4 [CE]2 | [Ec]2 [=D_c]2 [E=c]2 | [Fd]4 [_Gc]2 | %26
w: |||||
 [Fe]2 [Ec]2 [Fd]2 | [DF]4 z2 | [Fd]2 [Fc]2 [FB][FA] |[M:7/8] [Ee]2 A3 cc | %30
w: ||||
[M:3/4] [Fd]2 [Ec]2 [DB]2 | [CA]4 z2 |] %32
w: ||
V:2
 [A,,A,]2 [A,,E,]2 [A,,E,][A,,E,] | [B,,E,]2 [B,,E,]2 [E,G,][E,A,] | [E,B,]2 [E,A,]2 [E,G,]2 | %3
 [A,,A,]4 z2 | [A,CE]2 [A,E]2 [A,,A,][A,,A,] | [B,,A,]2 [B,,A,]2 [B,,A,][B,,G,] | %6
 [B,,F,]2 [B,,A,]2 [B,,A,]2 | [E,G,]4 z2 | [A,,A,]2 [A,,E,]2 [A,,E,][A,,E,] | %9
 [B,,E,]2 [B,,E,]2 [E,G,][E,A,] | [E,B,]2 [E,A,]2 [E,G,]2 | [A,,A,]4 [A,E]2 | %12
 [G,B,E]2 [G,B,]2 [F,CE][F,CE] | [B,E]2 [B,,B,]2 [B,,B,][B,,A,] | [E,G,]2 [E,G,]2 [E,A,]2 | %15
 [E,B,]4 z2 | [A,,A,]2 [A,,E,]2 [A,,E,][A,,E,] | [A,,E,]2 [A,,F,]2 [A,,E,A,][A,,E,A,] | %18
 [B,,E,G,]2 [B,,G,]2 [B,,B,]2 | [B,,G,]4 z2 | [E,B,]2 [E,G,]2 [E,A,][E,B,E] | %21
 [E,E]2 [E,D]2 [E,G,B,][E,G,B,] | [A,,E,A,]2 [A,,E,]2 z G, | [A,,A,]4 [A,,A,]2 | %24
 [A,,A,]2 [A,,A,]2 [A,,A,]2 | [A,,A,]4 [A,,A,]2 | [D,A,]2 [D,A,]2 [D,A,]2 | [D,A,]4 z2 | %28
 [B,,B,]2 [C,=A,]2 [D,B,][D,D] |[M:7/8] [C,A,]2 [F,CE]3 [F,A,E][F,A,E] | %30
[M:3/4] [B,,A,]2 [E,G,]2 [E,G,]2 | [A,,A,]4 z2 |] %32
V:3
 x6 | x6 | x6 | x6 | x6 | x6 | x6 | x6 | x6 | x6 | x6 | x6 | x6 | z2 z2 .=D2 | z2 B,2 C2 | D4 z2 | %16
 x6 | x6 | x6 | x6 | x6 | x6 | x6 | x6 | x6 | x6 | x6 | x6 | x6 |[M:7/8] x7 |[M:3/4] x6 | x6 |] %32
V:4
 x6 | x6 | x6 | x6 | x6 | x6 | x6 | x6 | x6 | x6 | x6 | x6 | x6 | x6 | x6 | x6 | x6 | x6 | x6 | %19
 x6 | x6 | x6 | z2 z2 A,,2 | x6 | x6 | x6 | x6 | x6 | x6 |[M:7/8] x7 |[M:3/4] x6 | x6 |] %32

